X:1
T:Whither shall I go - Croft
T:#
%%score [ 1 ] { ( 2 3 ) | 4 }
L:1/8
Q:1/4=60
M:4/4
K:A
V:1 treble nm="Alto" snm="A"
V:2 treble nm="Keyboard"
V:3 treble 
V:4 bass 
V:1
"^William Croft\n(1678-1727)""^Psalm 139:6-7" z"^Whither shall I go" | z8 | z8 | z8 | z8 | z8 | %6
w: ||||||
[M:4/4] E (D/C/) (B,/A,/) (A,/4B,/4C/) (C/B,/)B, (B,C/)D/ | (D/C/)C z C CCCC | (CB,) z2 B,B,B,B, | %9
w: whi- ther * shall * I * * go, * then, from * my|Spi\- * rit? or whi- ther shall I|go, * whi- ther shall I|
 (B,A,) A,2 (A,/>B,/ C2) (B,/A,/) | A,G, z2 z4 | z8 | z8 | z8 | z8 | z8 | %16
w: go, * then, from * * Thy *|pre- sence?||||||
 E (D/C/) (B,/A,/) (A,/4B,/4C/) (C/B,/)B, (B,C/)D/ | (D/C/)C z F FFFF | (FE/^D/) E2 EEEE | %19
w: Whi- ther * shall * I * * go, * then, from * Thy|Spi\- * rit? or whi- ther shall I|go, * * then, whi- ther shall I|
 (E=D/C/) D2 DDDD | (D/C/)C (E/F/E/D/ C3) (B,/A,/) | A,A, z!p! F FFFF | (FE/^D/) E2 EEEE | %23
w: go, * * then, whi- ther shall I|go, * then, from * * * * Thy *|pre- sence? or whi- ther shall I|go, * * then, whi- ther shall I|
 (E=D/C/) D2 DDDD | (D/C/)C (E/F/E/D/ C3) (B,/A,/) | A,A, z!f! E, A,B, CC/D/ | %26
w: go, * * then, whi- ther shall I|go, * then, from * * * * Thy *|pre- sence? If I climb up in- to|
 E2 E (D/C/) (CB,) z E | E^D D>E G,2 (C/D/)E | (C3 ^B,) CC z E | E (D/C/) (B,/^A,/)E (ED/C/) D2 | %30
w: heav'n, Thou art * there; * if|I go down to hell, Thou * art|there * al- so. O|whi- ther * shall * I go, * * then,|
 D (C/B,/) (A,/G,/)D (C/>B,/)A, (A,B,/)C/ | (C/B,/)B, z E, A,B, CD/D/ | E2 E (D/C/) (CB,) z ^A, | %33
w: whi- ther * shall * I go, * then, from * Thy|pre\- * sence? If I climb up in- to|heav'n, Thou art * there, * if|
 B,C DE/E/ F2 F (E/D/) | (DC) z D DC (C/D/)E | F,2 (B,/C/)D (B,3 ^A,) | %36
w: I climb up in- to heav'n, Thou art *|there, * if I go down * to|hell, Thou * art there *|
 B,B, z D D (C/B,/) (A,/G,/)D | (D/C/) z z2 C (A,/G,/) F,C | (C/B,/) z z2 B,^E,DC | %39
w: al- so. O whi- ther * shall * I|go? * whi- ther * shall I|go? * whi- ther shall I|
 A,2 A, (G,/F,/) F,F, z F | FFFA, B,2 z2 | B,B,EG, A,2 z2 | A,A,DG, A,E, (E/F/E/D/ | %43
w: go from Thy * Spi- rit? O|whi- ther shall I go,|whi- ther shall I go,|whi- ther shall I go, then, from * * *|
 C3) (B,/A,/) A,A, z2 |!p! FF F (F/A,/) B,2 z2 | B,B, B, (E/G,/) A,2 z2 | %46
w: * Thy * pre- sence?|Whi- ther shall I * go,|whi- ther shall I * go,|
"^cresc." A,A,DG, A,E,"^rall."[Q:1/4=59] (E/[Q:1/4=58]F/[Q:1/4=58]E/[Q:1/4=57]D/ | %47
w: whi- ther shall I go, then, from * * *|
[Q:1/4=55] C3)[Q:1/4=53] (B,/[Q:1/4=52]A,/)[Q:1/4=51] A,[Q:1/4=50]A,[Q:1/4=50] z2 |] %48
w: * Thy * pre- sence?|
V:2
 z | e/d/c/B/ Ac cB Bc/d/ | dc z B c3 e | f3 z B2 d2 | e3 z A2 c2 | d2 ef !turn!B2 cd | %6
[M:4/4] [Ae]c Ac cB B>d | dc z c c2 c2 | f3 z B2 B2 | e3 z A c3 | d2 ef B3 e | %11
 [Ae]/-[Ad]/c/B/ Ac cB Bc/d/ | d2 cf f4 | fd e2 e4 | ec =d2 d4 | dc ed [Ac]2 [GB]e | %16
 [Ae]c Ac cB B>d | dc z f f4 | f>^d e2 e4 | e>c =d2 d4 | dc ed [Ac]3 [GB] | [CEA]2 z!p! f f4 | %22
 f>^d e2 e4 | e>c d2 d4 | dc ed [Ac]3 [GB] | [CEA]2 z!f! E AB c>d | x8 | e^d d2 ^B2 ce | %28
 c3 ^B [Gc]2 [Ge]2 | x8 | x4 x2 Ac | [Ac][GB] z E AB cd | x2 [ce][Bd]/[Ac]/ [Ac][GB] z [F^A] | %33
 Bc de f2 [df][ce]/[Bd]/ | [Bd][^Ac] z d dc ce | ^A2 Bd B3 A | [FB]2 z2 d4 | %37
 [Ac]2 z2 [Ac]2 z [Ac] | [DFB]2 z2 [GB]2 [Bd]2 | [FA]3 [^EG] [A,CF]2 z f | f4- fe/d/ e2 | %41
 e4- ed/c/ d2 | d4 c2 ed | [Ac]3 [GB] [EA]2 z!pp! f | f4- fe/d/ e2 | e4- ed/c/ d2 | %46
"^cresc." d4 c2 ed | [Ac]3 [GB] [CEA]4 |] %48
V:3
 z | E3 A A2 G2 | A2 z G G2 A2 | cB/^A/ B z F2 B2 | BA/G/ A z E2 A2 | AG A2 A2 G2 | %6
[M:4/4] E2 EA A2 G2 | A2 z G G2 A2 | cB/^A/ B z F2 G2 | BA/G/ A z E A3 | AG A2 A2 G2 | E3 A A2 G2 | %12
 A3 c c2 dc | B3 B B2 cB | A3 A A2 GB | [EA]3 [FB] E4 | E2 EA A2 G2 | [EA]2 z c c2 dc | %18
 B2 z B B2 cB | A2 z A A2 GB | [EA]3 [FB] E4 | x2 x c c/>B/A/>G/ FA | B2 z B B/>A/G/>F/ EG | %23
 A2 z A A/>G/F/>E/ DG | [EA]3 [FB] E4 | x4 z E A>B | [ce]2 [ce][Bd]/[Ac]/ [Ac][GB] z [Ge] | %27
 A4 G2 G2 | E2 ^D2 E2 E2 | [^Ace]2 z2 [F=Bd]2 z2 | [GBd]2 z [Gd] [EAc]2 E2 | E2 x2 z E AB | %32
 [Ece]2 EF E2 FE | [DF]F Bc [Fd]2 F=G | F2 z F =G4 | F2 F2 D2 C2 | D2 z2 [EGB]4 | E2 z2 F2 z F | %38
 x4 ^E2 F2 | x8 | [Ac]4 B2 z B | B/>A/G/>F/ EG A2 z A | A/>G/F/>E/ DG [EA]3 [FB] | E3 E C2 z c | %44
 c/>B/A/>G/ FA B2 z B | B/>A/G/>F/ EG A2 z A | A/>G/F/>E/ DG E3 [FB] | E4 x4 |] %48
V:4
 [E,,E,] | A,,B,, C,D, E,F, E,E,, | A,,2 z E, E,/>D,/C,/>B,,/ A,,C, | %3
 D,2 D,,D, D,/>C,/B,,/>A,,/ G,,B,, | C,2 C,,C, C,/>B,,/A,,/>G,,/ F,,A,, | B,,2 C,D, E,2 E,,2 | %6
[M:4/4] A,,B,, C,D, E,F, E,E,, | A,,2 z E, E,/>D,/C,/>B,,/ A,,C, | %8
 D,2 D,,D, D,/>C,/B,,/>A,,/ G,,B,, | C,2 C,,C, C,/>B,,/A,,/>G,,/ F,,A,, | B,,2 C,D, E,3 E,, | %11
 A,,B,, C,D, E,F, E,E,, | A,,2 z A, A,/>G,/F,/>E,/ D,F, | G,2 z G, G,/>F,/E,/>D,/ C,E, | %14
 F,2 z F, F,/>E,/D,/>C,/ B,,2 | C,3 D, E,2 E,,2 | A,,B,, C,D, E,F, E,E,, | %17
 A,,2 z A, A,/>G,/F,/>E,/ D,F, | G,2 z G, G,/>F,/E,/>D,/ C,E, | F,2 z F, F,/>E,/D,/>C,/ B,,B,, | %20
 C,3 D, E,2 E,,2 | [A,,,A,,]2 z!p! A, A,/>G,/F,/>E,/ D,F, | G,2 z G, G,/>F,/E,/>D,/ C,E, | %23
 F,2 z F, F,/>E,/D,/>C,/ B,,2 | C,3 D, E,2 E,,2 | [A,,,A,,]4- [A,,,A,,]3!f! E,, | %26
 A,,B,, C,D, E,E, E,C, | F,4 F,2 E,C, | G,2 G,,2 [C,,C,]2 C,2 | F,,2 z2 B,,2 z2 | %30
 E,,2 z E,, A,,B,, C,D, | [E,,E,]4 E,3 E,, | A,,B,, C,D, E,2 D,C, | [B,,,B,,]4 B,,C, D,E, | %34
 F,2 B,2 E,2 E,,2 | [E,,E,]2 D,B,, F,2 F,,2 | [B,,,B,,]4 [E,,E,]4 | %37
 E,/>D,/C,/>B,,/ A,,C, [D,,D,]2 z D, | D,/>C,/B,,/>A,,/ G,,B,, C,2 B,,2 | C,3 C, [F,,F,]4 | %40
 F,4 G,2 z G, | G,/>F,/E,/>D,/ C,E, F,2 z F, | F,/>E,/D,/>C,/ B,,2 C,3 D, | %43
 E,2 E,,2 [A,,,A,,]2 z!pp! A, | A,/>G,/F,/>E,/ D,F, G,2 z G, | %45
 G,/>F,/E,/>D,/ C,E, F,2 z"^cresc." F, | F,/>E,/D,/>C,/ B,,2 [C,,C,]3"^rall." [D,,D,] | %47
 [E,,E,]2 E,,2 [A,,,A,,]4 |] %48

